public/icon.svg

<?xml version="1.0" encoding="UTF-8" standalone="no"?>
<!-- Created with Inkscape (http://www.inkscape.org/) -->

<svg
   width="249"
   height="249"
   viewBox="0 0 498 498"
   version="1.1"
   id="svg1"
   xml:space="preserve"
   inkscape:version="1.4 (e7c3feb100, 2024-10-09)"
   sodipodi:docname="icon.svg"
   xmlns:inkscape="http://www.inkscape.org/namespaces/inkscape"
   xmlns:sodipodi="http://sodipodi.sourceforge.net/DTD/sodipodi-0.dtd"
   xmlns:xlink="http://www.w3.org/1999/xlink"
   xmlns="http://www.w3.org/2000/svg"
   xmlns:svg="http://www.w3.org/2000/svg"><sodipodi:namedview
     id="namedview1"
     pagecolor="#ffffff"
     bordercolor="#000000"
     borderopacity="0.25"
     inkscape:showpageshadow="2"
     inkscape:pageopacity="0.0"
     inkscape:pagecheckerboard="0"
     inkscape:deskcolor="#d1d1d1"
     inkscape:document-units="px"
     showgrid="true"
     inkscape:zoom="1.5624999"
     inkscape:cx="208.00001"
     inkscape:cy="184.96001"
     inkscape:window-width="1920"
     inkscape:window-height="1011"
     inkscape:window-x="0"
     inkscape:window-y="0"
     inkscape:window-maximized="1"
     inkscape:current-layer="layer1"><inkscape:grid
       id="grid1"
       units="px"
       originx="-7"
       originy="-7"
       spacingx="1"
       spacingy="1"
       empcolor="#0099e5"
       empopacity="0.30196078"
       color="#0099e5"
       opacity="0.14901961"
       empspacing="5"
       enabled="true"
       visible="true" /></sodipodi:namedview><defs
     id="defs1"><linearGradient
       id="linearGradient3"
       inkscape:collect="always"><stop
         style="stop-color:#2760ea;stop-opacity:1;"
         offset="0"
         id="stop3" /><stop
         style="stop-color:#27b9ea;stop-opacity:1;"
         offset="1"
         id="stop4" /></linearGradient><linearGradient
       id="linearGradient1"
       inkscape:collect="always"><stop
         style="stop-color:#1554c3;stop-opacity:1;"
         offset="0"
         id="stop1" /><stop
         style="stop-color:#9fceff;stop-opacity:1;"
         offset="1"
         id="stop2" /></linearGradient><linearGradient
       inkscape:collect="always"
       xlink:href="#linearGradient1"
       id="linearGradient2"
       x1="20"
       y1="500"
       x2="510"
       y2="0"
       gradientUnits="userSpaceOnUse" /><linearGradient
       inkscape:collect="always"
       xlink:href="#linearGradient3"
       id="linearGradient4"
       x1="250"
       y1="500"
       x2="260"
       y2="10"
       gradientUnits="userSpaceOnUse" /></defs><g
     inkscape:label="Capa 1"
     inkscape:groupmode="layer"
     id="layer1"
     transform="translate(-7,-7)"><rect
       style="fill:url(#linearGradient4);fill-opacity:1;stroke:url(#linearGradient2);stroke-width:10;stroke-dasharray:none;paint-order:markers fill stroke"
       id="rect1"
       width="488"
       height="488"
       x="12"
       y="12"
       rx="50" /><g
       style="fill:#ffffff;fill-opacity:1"
       id="g1"
       transform="matrix(0.3119015,0,0,0.3119015,106.59918,411.95075)"><path
         d="m 754,-81 q -8,0 -15,-2.5 -7,-2.5 -13,-8.5 L 522,-296 q -6,-6 -8.5,-13 -2.5,-7 -2.5,-15 0,-8 2.5,-15 2.5,-7 8.5,-13 l 85,-85 q 6,-6 13,-8.5 7,-2.5 15,-2.5 8,0 15,2.5 7,2.5 13,8.5 l 204,204 q 6,6 8.5,13 2.5,7 2.5,15 0,8 -2.5,15 -2.5,7 -8.5,13 l -85,85 q -6,6 -13,8.5 -7,2.5 -15,2.5 z m 0,-95 29,-29 -147,-147 -29,29 z m -549,96 q -8,0 -15.5,-3 -7.5,-3 -13.5,-9 l -84,-84 q -6,-6 -9,-13.5 -3,-7.5 -3,-15.5 0,-8 3,-15 3,-7 9,-13 l 212,-212 h 85 l 34,-34 -165,-165 H 201 L 80,-765 193,-878 314,-757 v 57 l 165,165 116,-116 -43,-43 56,-56 H 495 l -28,-28 142,-142 28,28 v 113 l 56,-56 142,142 q 17,17 26,38.5 9,21.5 9,45.5 0,24 -9,46 -9,22 -26,39 l -85,-85 -56,56 -42,-42 -207,207 v 84 L 233,-92 q -6,6 -13,9 -7,3 -15,3 z m 0,-96 170,-170 v -29 h -29 l -170,170 z m 0,0 -29,-29 15,14 z m 549,0 29,-29 z"
         id="path1"
         style="fill:#ffffff;fill-opacity:1" /></g><path
       id="rect2"
       style="fill:#ffffff;stroke-dashoffset:88;paint-order:markers fill stroke"
       d="M 121,66 C 93.472972,66 71,88.472972 71,116 v 55 h 20 v -55 c 0,-16.792972 13.20703,-30 30,-30 h 50 V 66 Z m 220,0 v 20 h 50 c 16.79297,0 30,13.207028 30,30 v 55 h 20 V 116 C 441,88.472972 418.52703,66 391,66 Z M 71,341 v 55 c 0,27.52703 22.472972,50 50,50 h 50 v -20 h -50 c -16.79297,0 -30,-13.20703 -30,-30 v -55 z m 350,0 v 55 c 0,16.79297 -13.20703,30 -30,30 h -50 v 20 h 50 c 27.52703,0 50,-22.47297 50,-50 v -55 z" /></g></svg>

<?xml version="1.0" encoding="UTF-8" standalone="no"?>
<!-- Created with Inkscape (http://www.inkscape.org/) -->

<svg
   width="256"
   height="256"
   viewBox="0 0 512 512"
   version="1.1"
   id="svg1"
   xml:space="preserve"
   inkscape:version="1.4 (e7c3feb100, 2024-10-09)"
   sodipodi:docname="icon.svg"
   xmlns:inkscape="http://www.inkscape.org/namespaces/inkscape"
   xmlns:sodipodi="http://sodipodi.sourceforge.net/DTD/sodipodi-0.dtd"
   xmlns:xlink="http://www.w3.org/1999/xlink"
   xmlns="http://www.w3.org/2000/svg"
   xmlns:svg="http://www.w3.org/2000/svg"><sodipodi:namedview
     id="namedview1"
     pagecolor="#ffffff"
     bordercolor="#000000"
     borderopacity="0.25"
     inkscape:showpageshadow="2"
     inkscape:pageopacity="0.0"
     inkscape:pagecheckerboard="0"
     inkscape:deskcolor="#d1d1d1"
     inkscape:document-units="px"
     showgrid="true"
     inkscape:zoom="1.5624999"
     inkscape:cx="211.84001"
     inkscape:cy="290.56001"
     inkscape:window-width="1920"
     inkscape:window-height="1011"
     inkscape:window-x="0"
     inkscape:window-y="0"
     inkscape:window-maximized="1"
     inkscape:current-layer="layer1"><inkscape:grid
       id="grid1"
       units="px"
       originx="0"
       originy="0"
       spacingx="1"
       spacingy="1"
       empcolor="#0099e5"
       empopacity="0.30196078"
       color="#0099e5"
       opacity="0.14901961"
       empspacing="5"
       enabled="true"
       visible="true" /></sodipodi:namedview><defs
     id="defs1"><linearGradient
       id="linearGradient3"
       inkscape:collect="always"><stop
         style="stop-color:#2760ea;stop-opacity:1;"
         offset="0"
         id="stop3" /><stop
         style="stop-color:#27b9ea;stop-opacity:1;"
         offset="1"
         id="stop4" /></linearGradient><linearGradient
       id="linearGradient1"
       inkscape:collect="always"><stop
         style="stop-color:#1554c3;stop-opacity:1;"
         offset="0"
         id="stop1" /><stop
         style="stop-color:#9fceff;stop-opacity:1;"
         offset="1"
         id="stop2" /></linearGradient><linearGradient
       inkscape:collect="always"
       xlink:href="#linearGradient1"
       id="linearGradient2"
       x1="20"
       y1="500"
       x2="510"
       y2="0"
       gradientUnits="userSpaceOnUse" /><linearGradient
       inkscape:collect="always"
       xlink:href="#linearGradient3"
       id="linearGradient4"
       x1="250"
       y1="500"
       x2="260"
       y2="10"
       gradientUnits="userSpaceOnUse" /></defs><g
     inkscape:label="Capa 1"
     inkscape:groupmode="layer"
     id="layer1"><rect
       style="fill:url(#linearGradient4);fill-opacity:1;stroke:url(#linearGradient2);stroke-width:10;stroke-dasharray:none;paint-order:markers fill stroke"
       id="rect1"
       width="488"
       height="488"
       x="12"
       y="12"
       rx="50" /><g
       style="fill:#ffffff;fill-opacity:1"
       id="g1"
       transform="matrix(0.3119015,0,0,0.3119015,106.59918,411.95075)"><path
         d="m 754,-81 q -8,0 -15,-2.5 -7,-2.5 -13,-8.5 L 522,-296 q -6,-6 -8.5,-13 -2.5,-7 -2.5,-15 0,-8 2.5,-15 2.5,-7 8.5,-13 l 85,-85 q 6,-6 13,-8.5 7,-2.5 15,-2.5 8,0 15,2.5 7,2.5 13,8.5 l 204,204 q 6,6 8.5,13 2.5,7 2.5,15 0,8 -2.5,15 -2.5,7 -8.5,13 l -85,85 q -6,6 -13,8.5 -7,2.5 -15,2.5 z m 0,-95 29,-29 -147,-147 -29,29 z m -549,96 q -8,0 -15.5,-3 -7.5,-3 -13.5,-9 l -84,-84 q -6,-6 -9,-13.5 -3,-7.5 -3,-15.5 0,-8 3,-15 3,-7 9,-13 l 212,-212 h 85 l 34,-34 -165,-165 H 201 L 80,-765 193,-878 314,-757 v 57 l 165,165 116,-116 -43,-43 56,-56 H 495 l -28,-28 142,-142 28,28 v 113 l 56,-56 142,142 q 17,17 26,38.5 9,21.5 9,45.5 0,24 -9,46 -9,22 -26,39 l -85,-85 -56,56 -42,-42 -207,207 v 84 L 233,-92 q -6,6 -13,9 -7,3 -15,3 z m 0,-96 170,-170 v -29 h -29 l -170,170 z m 0,0 -29,-29 15,14 z m 549,0 29,-29 z"
         id="path1"
         style="fill:#ffffff;fill-opacity:1" /></g><path
       id="rect2"
       style="fill:#ffffff;stroke-dashoffset:88;paint-order:markers fill stroke"
       d="M 121 66 C 93.472972 66 71 88.472972 71 116 L 71 171 L 91 171 L 91 116 C 91 99.207028 104.20703 86 121 86 L 171 86 L 171 66 L 121 66 z M 341 66 L 341 86 L 391 86 C 407.79297 86 421 99.207028 421 116 L 421 171 L 441 171 L 441 116 C 441 88.472972 418.52703 66 391 66 L 341 66 z M 71 341 L 71 396 C 71 423.52703 93.472972 446 121 446 L 171 446 L 171 426 L 121 426 C 104.20703 426 91 412.79297 91 396 L 91 341 L 71 341 z M 421 341 L 421 396 C 421 412.79297 407.79297 426 391 426 L 341 426 L 341 446 L 391 446 C 418.52703 446 441 423.52703 441 396 L 441 341 L 421 341 z " /></g></svg>
